X:1
T:Title
%%score { ( 1 3 ) | ( 2 4 ) }
L:1/8
M:4/4
K:G
V:1 treble nm="Grand Piano"
V:3 treble 
V:2 bass 
V:4 bass 
V:1
 z4 z2[Q:1/4=100] [B,DG][CDA] | [DGB]2 [DGd]2 [DFA]2 [DFB][CFA] | %2
 [B,EG]2 [G,B,E]2 [G,EG]2 [G,DF][G,CE] | [G,B,D]2 [G,B,G]2 [G,^CG]2 [A,CF][G,CG] | %4
[M:9/8] .B3 E A2- ABc |[M:4/4] d2 B2 [FA]2 [^DB][DA] | [EG]2 [CE]2 [EG]2 FE | %7
 D2 G2 [^CG]2 [CF][CG] |[M:7/8] z2 A2 z z2 |[M:1/4] B>c |[M:4/4] d2 d2 d2 B>c | %11
 d2 [^Ge]2 c2 [Fd]>[Fc] | B2 B>B B2 AG |[M:9/8] [^CB]2 [CA]- [CA] A2- AB>c | %14
[M:4/4] d2 d2 [Fd]2 G>A | B2 B2 [^DB]4 |[M:9/8] [CA][EG][G,DF] [G,CE][G,B,D]D G3 | %17
[M:7/8] B2 F z z z2[Q:1/4=98][Q:1/4=97][Q:1/4=95][Q:1/4=94][Q:1/4=92][Q:1/4=91][Q:1/4=89][Q:1/4=88][Q:1/4=86][Q:1/4=84][Q:1/4=83][Q:1/4=81][Q:1/4=80][Q:1/4=78][Q:1/4=77] |] %18
V:2
 z4 z2 G,G, | G,2 B,,2 D,2 D,D, | E,2 E,2 C,2 C,C, | D,2 E,2 A,,2 A,,A,, | %4
[M:9/8] z2 D z3 z3[K:treble] |[M:4/4] [G,B,D]2 [G,DG]2[K:bass] [D,D]2 [B,,F,][B,,F,] | %6
 [C,E,]2 [C,G,]2 [C,G,]2 [^C,G,_B,][C,G,B,] | [D,G,B,]2 [E,G,B,]2 [A,,A,]2 [A,,A,][A,,G,] | %8
[M:7/8] [D,G,D]2 [D,D]2 G,,3 |[M:1/4][K:treble] [G,G]>[G,A,G] | %10
[M:4/4] [G,B,G]2 [A,CF]2 [B,D=F]2 [G,DF]>[G,CE] | [G,B,G]2[K:bass] [E,B,]2 [A,E]2 [D,A,]>[D,D] | %12
 [G,DG]2 [G,D]>[K:bass][G,D] [E,G,^C]2 [E,A,C][E,A,C] | %13
[M:9/8] [A,,G,]2 [A,,G,]- [A,,G,] [D,F,D]2- [D,F,D] z z | %14
[M:4/4][K:treble] [B,DG]2 [G,B,G]2[K:bass] [D,A,]2 z2 | [G,D]2 [E,G,E]2 [B,,F,]4 | %16
[M:9/8] [C,E,][C,E,]C, .C,2 B, [E,_B,C]3 |[M:7/8] [G,D]D z D G,,3 |] %18
V:3
 x8 | x8 | x8 | x8 |[M:9/8] z2 A- A z z z3 |[M:4/4] x8 | x8 | x8 |[M:7/8] B2 z C [B,DG]3 | %9
[M:1/4] x2 |[M:4/4] x8 | x8 | x8 |[M:9/8] x9 |[M:4/4] x8 | x8 |[M:9/8] x9 | %17
[M:7/8] z G [CA]2 [B,DG]3 |] %18
V:4
 x8 | x8 | x8 | x8 |[M:9/8] [D,G,D]2 [D,F,]- [D,F,] [D,F,D]2- [D,F,D][K:treble][G,D][G,A,D] | %5
[M:4/4] x4[K:bass] x4 | x8 | x8 |[M:7/8] z2 F, z z z2 |[M:1/4][K:treble] x2 |[M:4/4] x8 | %11
 x2[K:bass] x6 | x7/2[K:bass] x9/2 |[M:9/8] x9 |[M:4/4][K:treble] x4[K:bass] x4 | x8 | %16
[M:9/8] z3 z G,,2 z3 |[M:7/8] D,2 D,2 z z2 |] %18

